public/images/prizes/third-place.svg

<svg width="136" height="156" viewBox="0 0 136 156" fill="none" xmlns="http://www.w3.org/2000/svg">
<circle cx="68" cy="78" r="51" fill="#FFE4C2"/>
<path d="M39.1616 11.632C43.7696 11.632 47.7056 12.432 50.9696 14.032C54.2976 15.632 56.7936 17.84 58.4576 20.656C60.1856 23.472 61.0496 26.608 61.0496 30.064C61.0496 34.416 59.8656 38 57.4976 40.816C55.1296 43.568 51.9936 45.264 48.0896 45.904V46.384C57.5616 49.2 62.2976 54.768 62.2976 63.088C62.2976 68.912 60.3456 73.648 56.4416 77.296C52.5376 80.88 47.0336 82.672 39.9296 82.672C32.3776 82.672 26.3616 80.816 21.8816 77.104C17.4016 73.328 14.9056 67.664 14.3936 60.112H27.6416C27.9616 63.568 29.0816 66.32 31.0016 68.368C32.9856 70.352 35.7696 71.344 39.3536 71.344C42.4256 71.344 44.8256 70.512 46.5536 68.848C48.2816 67.12 49.1456 64.88 49.1456 62.128C49.1456 58.864 47.8976 56.368 45.4016 54.64C42.9056 52.912 39.2256 52.048 34.3616 52.048H31.5776V41.008H34.3616C43.3216 41.136 47.8016 38.032 47.8016 31.696C47.8016 28.944 47.0016 26.8 45.4016 25.264C43.8016 23.664 41.6256 22.864 38.8736 22.864C35.9936 22.864 33.6256 23.792 31.7696 25.648C29.9136 27.44 28.8576 29.968 28.6016 33.232H15.3536C15.7376 26.32 17.9776 21.008 22.0736 17.296C26.1696 13.52 31.8656 11.632 39.1616 11.632Z" fill="#1F252A"/>
</svg>

<svg fill="none" height="156" viewBox="0 0 136 156" width="136" xmlns="http://www.w3.org/2000/svg"><circle cx="68" cy="78" fill="#ffe4c2" r="51"/><path d="m39.1616 11.632c4.608 0 8.544.8 11.808 2.4 3.328 1.6 5.824 3.808 7.488 6.624 1.728 2.816 2.592 5.952 2.592 9.408 0 4.352-1.184 7.936-3.552 10.752-2.368 2.752-5.504 4.448-9.408 5.088v.48c9.472 2.816 14.208 8.384 14.208 16.704 0 5.824-1.952 10.56-5.856 14.208-3.904 3.584-9.408 5.376-16.512 5.376-7.552 0-13.568-1.856-18.048-5.568-4.48-3.776-6.976-9.44-7.488-16.992h13.248c.32 3.456 1.44 6.208 3.36 8.256 1.984 1.984 4.768 2.976 8.352 2.976 3.072 0 5.472-.832 7.2-2.496 1.728-1.728 2.592-3.968 2.592-6.72 0-3.264-1.248-5.76-3.744-7.488s-6.176-2.592-11.04-2.592h-2.784v-11.04h2.784c8.96.128 13.44-2.976 13.44-9.312 0-2.752-.8-4.896-2.4-6.432-1.6-1.6-3.776-2.4-6.528-2.4-2.88 0-5.248.928-7.104 2.784-1.856 1.792-2.912 4.32-3.168 7.584h-13.248c.384-6.912 2.624-12.224 6.72-15.936 4.096-3.776 9.792-5.664 17.088-5.664z" fill="#1f252a"/></svg>
